src/assets/filled/Refresh.svg

<?xml version="1.0" encoding="UTF-8"?>
<svg width="24" height="24" viewBox="0 0 24 24" xmlns="http://www.w3.org/2000/svg">
 <path d="m14.55 22.42c-0.33 0-0.64-0.22-0.73-0.56-0.1-0.4 0.13-0.81 0.53-0.92 4.06-1.07 6.89-4.75 6.89-8.95 0-5.1-4.15-9.25-9.25-9.25-4.33 0-7.17 2.53-8.5 4.06h2.94c0.41 0 0.75 0.34 0.75 0.75s-0.32 0.76-0.74 0.76h-4.43c-0.07 0-0.14-0.01-0.21-0.03-0.09-0.03-0.17-0.07-0.24-0.12-0.09-0.06-0.16-0.14-0.21-0.23-0.05-0.1-0.09-0.2-0.1-0.31v-0.08-4.54c0-0.41 0.34-0.75 0.75-0.75s0.75 0.34 0.75 0.75v2.39c1.63-1.75 4.7-4.14 9.25-4.14 5.93 0 10.75 4.82 10.75 10.75 0 4.88-3.29 9.16-8.01 10.4-0.06 0.01-0.13 0.02-0.19 0.02z"/>
 <path d="m11.29 22.73c-0.02 0-0.05 0-0.07-0.01-1.07-0.07-2.12-0.31-3.12-0.7-0.29-0.11-0.48-0.4-0.48-0.71 0-0.09 0.02-0.18 0.05-0.26 0.15-0.38 0.59-0.58 0.97-0.43 0.86 0.34 1.77 0.54 2.69 0.61h0.01c0.4 0.02 0.7 0.36 0.7 0.76v0.04c-0.03 0.39-0.36 0.7-0.75 0.7zm-5.51-2.15c-0.17 0-0.33-0.05-0.47-0.16-0.84-0.67-1.57-1.46-2.18-2.35-0.09-0.13-0.14-0.27-0.14-0.42 0-0.25 0.12-0.48 0.33-0.62 0.33-0.23 0.82-0.14 1.04 0.19 0.53 0.77 1.16 1.45 1.89 2.02 0.17 0.14 0.28 0.35 0.28 0.58 0 0.17-0.05 0.34-0.16 0.48-0.14 0.18-0.36 0.28-0.59 0.28zm-3.34-4.88c-0.33 0-0.62-0.21-0.71-0.52-0.32-1.03-0.48-2.1-0.48-3.18 0-0.41 0.34-0.75 0.75-0.75s0.75 0.34 0.75 0.75c0 0.93 0.14 1.85 0.41 2.73 0.02 0.07 0.03 0.15 0.03 0.23 0 0.33-0.21 0.61-0.52 0.71-0.08 0.02-0.15 0.03-0.23 0.03z"/>
 <path d="m12 16c2.2091 0 4-1.7909 4-4 0-2.2091-1.7909-4-4-4-2.2091 0-4 1.7909-4 4 0 2.2091 1.7909 4 4 4z"/>
</svg>

<svg width="24" height="24" viewBox="0 0 24 24"  xmlns="http://www.w3.org/2000/svg">
<path d="M14.55 22.42C14.22 22.42 13.91 22.2 13.82 21.86C13.72 21.46 13.95 21.05 14.35 20.94C18.41 19.87 21.24 16.19 21.24 11.99C21.24 6.89 17.09 2.74 11.99 2.74C7.66 2.74 4.82 5.27 3.49 6.8H6.43C6.84 6.8 7.18 7.14 7.18 7.55C7.18 7.96 6.86 8.31 6.44 8.31H2.01C1.94 8.31 1.87 8.3 1.8 8.28C1.71 8.25 1.63 8.21 1.56 8.16C1.47 8.1 1.4 8.02 1.35 7.93C1.3 7.83 1.26 7.73 1.25 7.62C1.25 7.59 1.25 7.57 1.25 7.54V3C1.25 2.59 1.59 2.25 2 2.25C2.41 2.25 2.75 2.59 2.75 3V5.39C4.38 3.64 7.45 1.25 12 1.25C17.93 1.25 22.75 6.07 22.75 12C22.75 16.88 19.46 21.16 14.74 22.4C14.68 22.41 14.61 22.42 14.55 22.42Z" />
<path d="M11.29 22.73C11.27 22.73 11.24 22.73 11.22 22.72C10.15 22.65 9.1 22.41 8.1 22.02C7.81 21.91 7.62 21.62 7.62 21.31C7.62 21.22 7.64 21.13 7.67 21.05C7.82 20.67 8.26 20.47 8.64 20.62C9.5 20.96 10.41 21.16 11.33 21.23H11.34C11.74 21.25 12.04 21.59 12.04 21.99C12.04 22 12.04 22.02 12.04 22.03C12.01 22.42 11.68 22.73 11.29 22.73ZM5.78 20.58C5.61 20.58 5.45 20.53 5.31 20.42C4.47 19.75 3.74 18.96 3.13 18.07C3.04 17.94 2.99 17.8 2.99 17.65C2.99 17.4 3.11 17.17 3.32 17.03C3.65 16.8 4.14 16.89 4.36 17.22C4.89 17.99 5.52 18.67 6.25 19.24C6.42 19.38 6.53 19.59 6.53 19.82C6.53 19.99 6.48 20.16 6.37 20.3C6.23 20.48 6.01 20.58 5.78 20.58ZM2.44 15.7C2.11 15.7 1.82 15.49 1.73 15.18C1.41 14.15 1.25 13.08 1.25 12C1.25 11.59 1.59 11.25 2 11.25C2.41 11.25 2.75 11.59 2.75 12C2.75 12.93 2.89 13.85 3.16 14.73C3.18 14.8 3.19 14.88 3.19 14.96C3.19 15.29 2.98 15.57 2.67 15.67C2.59 15.69 2.52 15.7 2.44 15.7Z" />
<path d="M12 16C14.2091 16 16 14.2091 16 12C16 9.79086 14.2091 8 12 8C9.79086 8 8 9.79086 8 12C8 14.2091 9.79086 16 12 16Z" />
</svg>
